X:1
T:Sancta Maria, mater Dei
T:Maître Gosse
T:Source :  Liber motettorum VII---Paris---P.Attaignant--- 1534. Editor : André Vierendeels (25/08/17).
T:Notes: Original clefs : C1, C1, C4 Editorial accidentals above the staff Original note values have been halved
T:Sancta Maria, mater Dei
T:©
T:©
T:©
C:Maître Gosse
Z:©
%%score [ 1 2 3 ]
L:1/8
Q:1/4=120
M:2/2
K:C
V:1 treble nm="Soprano 1" snm="S 1"
V:2 treble nm="Soprano 2" snm="S 2"
V:3 treble-8 nm="Tenor" snm="T"
V:1
 z8 | z8 | z8 | z8 | c6 c2 | c4 d4 | c4 A2 c2- | c2 BA B4 | A4 z4 | z8 | c4 c4 | A4 d4 | c8 | %13
w: ||||San- cta|Ma- *|ri- * *||a,||ma ter|_ De-||
 c3 B c2 d2 | e2 c4 B2 | c8- | c8 | z4 F4 | A4 c4- | c2 c2 c2 c2 | d4 c4 | z4 z2 c2- | %22
w: ||i,|_|o-|ra pro|_ pec- ca- tis|no- stris,|pro|
 c2 c2 c2 B2- | B2 A4 G2 | A4 z2 E2- | E2 E2 F2 G2 | E2 A4 G2 | A2 c2 B4 | A3 B c2 B2- | B2 A4 G2 | %30
w: _ pec- ca- tis|_ no- *|stris, pro|_ pec- ca- tis|no- * *|stris, pro pec-|ca- * * tis|_ no- *|
 A8- | A8- | A8- | A8- | A8 |] %35
w: stris.|_||||
V:2
 z8 | z8 | c6 c2 | c4 d4 | c4 A2 c2- | c2 BA B2 G2- | G2 A4 GF | E4 z2 G2 | A3 B cA B2- | %9
w: ||San- cta|Ma- *|ri- * *|||a, ma-|ter _ _ _ De-|
 B2 A4 G2 | A4 z2 F2 | F4 D2 A2- | A2 A2 AGAB | c2 A4 G2- | G2 F2 G4 | z4 C4 | E4 G4- | G2 A3 GFE | %18
w: |i, ma-|ter De- i,|_ ma- ter- * * *|* De- *|* * i,|o-|ra pro|_ pec- * * *|
 F2 D2 E2 A2- | A2 A2 G2 A2- | A2 G2 FEDC | D4 C2 F2- | F2 E2 F2 G2 | E4 D4 | z2 A4 G2 | A2 c2 B4 | %26
w: ca- * * tis,|_ no- * *||* stris, pro|_ pec- ca- tis|no- stris,|pro pec-|ca- tis no-|
 A4 z2 D2- | D2 C2 D2 E2 | F6 G2 | E4 z2 D2- | D2 C2 D2 E2 | F3 E/D/ C2 c2- | c2 B2 A2 G2 | %33
w: stris, pro|_ pec- ca- tis|no- *|stris, pro|_ pec- ca- tis|no- * * * *||
 F4 E4- | E8 |] %35
w: * stris.|_|
V:3
 c6 c2 | c4 d4 | c4 A2 c2- | c2 BA B4 | A8 | A4 G4 | C4 F3 G | AB c2 d2 e2 | c2 d2 c2 d2- | %9
w: San- cta|Ma- *|ri- * *||a|ma- ter|_ De- *|||
 dcBA B4 | A8 | z2 F4 D2 | A4 F3 G | AB c4 B2 | A4 G4 | z2 F4 A2- | A2 c4 c2 | B2 c2 d4- | d4 c4 | %19
w: |i,|ma- ter|D- * *||* i,|o- ra|_ pro pec-|ca- tis no-|* stris,|
 z2 c4 c2 | B2 G2 A4 | G4 z4 | z2 A4 G2 | A2 c2 B4 | A3 G F2 E2 | A,2 A4 G2 | A2 c2 B4 | A4 z4 | %28
w: pro pec-|ca- tis no-|stris,|pro pec-|ca- tis no-||||stris,|
 z2 A4 G2 | A2 c2 B4 | A3 G F2 E2 | D3 C/B,/ A,2 A2- | A2 G2 F2 E2 | D4 A4- | A8 |] %35
w: pro pec-|ca- tis no-||||* stris.|_|

